dist/images/how-work-2.svg

<svg width="48" height="42" viewBox="0 0 48 42" fill="none" xmlns="http://www.w3.org/2000/svg">
<path d="M23.9328 37.113C24.7985 26.9595 25.292 17.3988 23.9328 10.7924C23.9328 10.7924 13.2679 5.42581 2.28618 10.4078C2.04467 10.5188 1.84019 10.697 1.69715 10.921C1.55412 11.145 1.47856 11.4055 1.4795 11.6713V37.113H23.9328Z" fill="#868F98"/>
<path d="M23.9326 37.113C24.6111 26.0793 25.2609 14.5292 26.2903 9.85756C30.0636 8.58218 37.8385 6.83709 45.7139 10.4082C45.9554 10.5191 46.1599 10.6973 46.303 10.9213C46.4461 11.1454 46.5216 11.4059 46.5207 11.6717V37.113H23.9326Z" fill="white"/>
<path d="M26.2903 9.85742C25.4861 10.1207 24.6987 10.4329 23.9326 10.7922V37.1128H26.2903V9.85742Z" fill="#868F98"/>
<path d="M22.686 36.5749C19.4672 35.3145 10.4945 32.6032 1.47949 37.1128V41.282C11.7672 38.3614 19.8214 40.0584 22.7438 40.8975C23.5212 41.1209 24.3456 41.1221 25.1237 40.9011C28.0711 40.0632 36.2181 38.3571 46.5207 41.2823V37.1128C37.4947 32.5977 28.425 35.3211 25.1813 36.5796C24.3784 36.891 23.4878 36.8893 22.686 36.5749Z" fill="url(#paint0_linear_747_297676)"/>
<path d="M22.3625 34.9528C20.1631 32.3736 15.5273 28.2685 7.67478 27.1556C7.29968 27.1042 6.9558 26.9189 6.70654 26.6339C6.45727 26.3489 6.31941 25.9834 6.31836 25.6048V2.00318C6.31826 1.8387 6.35295 1.67605 6.42014 1.52592C6.48734 1.37578 6.58553 1.24156 6.70826 1.13205C6.831 1.02254 6.9755 0.940223 7.13229 0.890505C7.28908 0.840786 7.45462 0.824787 7.61803 0.843559C19.7592 2.27184 23.9325 10.7924 23.9325 10.7924V34.3709C23.9328 34.5533 23.8771 34.7315 23.773 34.8813C23.6689 35.0312 23.5214 35.1455 23.3503 35.2089C23.1792 35.2723 22.9928 35.2818 22.8162 35.236C22.6396 35.1902 22.4812 35.0913 22.3625 34.9528Z" fill="white"/>
<path d="M11.4346 20.4996C12.5804 20.8521 13.6659 21.3772 14.6534 22.0569V18.2243C13.6697 17.5335 12.5835 17.0018 11.4346 16.6484V20.4996Z" fill="#868F98"/>
<path d="M37.1855 13.5996L38.8314 12.1799L43.7217 17.8491C43.9099 18.0673 44.0038 18.3514 43.9826 18.6389C43.9614 18.9263 43.8269 19.1936 43.6086 19.3818C43.3904 19.5701 43.1063 19.6639 42.8188 19.6427C42.5314 19.6215 42.2641 19.487 42.0759 19.2688L37.1855 13.5996Z" fill="#E89040"/>
<path d="M30.1807 12.9453L39.2127 5.15412L43.0948 9.65444L34.0627 17.4456L30.1807 12.9453Z" fill="url(#paint1_linear_747_297676)"/>
<path d="M42.2803 10.3983C42.6856 10.8682 43.3951 10.9205 43.865 10.5152C44.3349 10.1098 44.3872 9.40034 43.9819 8.93045L40.0771 4.40374C39.6718 3.93385 38.9623 3.88152 38.4924 4.28685C38.0225 4.69218 37.9702 5.40167 38.3755 5.87156L42.2803 10.3983Z" fill="#E89040"/>
<path d="M31.0195 12.1974C30.6142 11.7275 29.9047 11.6752 29.4348 12.0805C28.9649 12.4859 28.9126 13.1954 29.3179 13.6653L33.2227 18.192C33.628 18.6618 34.3375 18.7142 34.8074 18.3089C35.2773 17.9035 35.3296 17.194 34.9243 16.7241L31.0195 12.1974Z" fill="#E89040"/>
<path d="M37.4431 23.3184H31.5187C31.2012 23.3184 30.8966 23.4446 30.6721 23.6691C30.4475 23.8937 30.3213 24.1982 30.3213 24.5158V25.3365C33.0767 25.7801 35.8853 25.7801 38.6407 25.3365V24.5158C38.6406 24.1982 38.5145 23.8936 38.2899 23.6691C38.0653 23.4445 37.7607 23.3184 37.4431 23.3184Z" fill="url(#paint2_linear_747_297676)"/>
<path d="M29.7827 25.3379H39.1777C39.5334 25.3379 39.8746 25.4792 40.1261 25.7307C40.3776 25.9822 40.5189 26.3234 40.5189 26.6791V27.62H28.4414V26.6792C28.4414 26.5031 28.4761 26.3286 28.5435 26.1659C28.6109 26.0031 28.7097 25.8553 28.8342 25.7307C28.9588 25.6062 29.1067 25.5074 29.2694 25.44C29.4321 25.3726 29.6066 25.3379 29.7827 25.3379Z" fill="#E89040"/>
<path d="M14.9468 17.8263C13.4303 16.711 11.6441 16.1973 11.5697 16.1733C11.496 16.1474 11.4171 16.1401 11.34 16.1521C11.2628 16.1641 11.1898 16.195 11.1275 16.242C11.0652 16.2891 11.0155 16.3508 10.9828 16.4217C10.9502 16.4927 10.9356 16.5706 10.9403 16.6485V20.4997C10.9403 20.6061 10.9746 20.7097 11.0382 20.795C11.1018 20.8804 11.1913 20.9429 11.2933 20.9733C12.3842 21.3123 13.4185 21.8119 14.3622 22.4557C14.7865 22.6756 15.1472 22.3834 15.1472 22.0563V18.2243C15.1473 18.1469 15.1292 18.0706 15.0944 18.0014C15.0596 17.9323 15.009 17.8723 14.9468 17.8263V17.8263ZM14.1597 21.1581C13.4517 20.7454 12.7045 20.4039 11.9291 20.1385V17.3391C12.7143 17.6314 13.4629 18.014 14.1597 18.4793V21.1581Z" fill="#112E49"/>
<path d="M11.3254 6.53124C11.479 6.56597 11.8672 6.65971 11.909 6.65971C12.4724 6.66677 12.5886 5.82846 12.0345 5.68771C11.6486 5.57237 11.0856 5.40338 10.9526 5.94013C10.9383 6.00342 10.9366 6.06891 10.9475 6.13286C10.9585 6.19682 10.982 6.25799 11.0166 6.31288C11.0512 6.36776 11.0963 6.4153 11.1492 6.45277C11.2022 6.49023 11.2621 6.5169 11.3254 6.53124V6.53124Z" fill="#112E49"/>
<path d="M14.7159 7.75434C17.8963 9.16511 20.1646 11.6159 20.187 11.6405C20.5894 12.0134 21.3761 11.5609 20.916 10.9733C20.8188 10.867 18.4922 8.34841 15.1167 6.85095C14.5272 6.59259 14.1249 7.48864 14.7159 7.75434V7.75434Z" fill="#112E49"/>
<path d="M11.3249 10.1816C16.2986 11.3083 20.1547 15.2621 20.1955 15.2995C20.7785 15.7844 21.2875 15.0252 20.907 14.6137C20.7424 14.4427 16.8116 10.4118 11.5433 9.21776C10.9103 9.08562 10.6915 10.026 11.3249 10.1816Z" fill="#112E49"/>
<path d="M11.3254 13.8315C16.299 14.9582 20.1575 18.9096 20.1959 18.9494C20.2939 19.0298 20.4162 19.0748 20.543 19.0771C20.6697 19.0794 20.7936 19.0388 20.8944 18.962C20.9425 18.9178 20.9811 18.8643 21.0079 18.8048C21.0348 18.7452 21.0492 18.6809 21.0504 18.6156C21.0516 18.5503 21.0396 18.4854 21.015 18.4249C20.9904 18.3644 20.9538 18.3095 20.9074 18.2636C20.7428 18.0926 16.812 14.0612 11.5438 12.8677C11.4805 12.8533 11.415 12.8516 11.351 12.8626C11.2871 12.8735 11.2259 12.897 11.171 12.9316C11.1161 12.9662 11.0686 13.0113 11.0311 13.0643C10.9937 13.1173 10.967 13.1771 10.9526 13.2404C10.9383 13.3037 10.9366 13.3692 10.9475 13.4331C10.9585 13.4971 10.982 13.5582 11.0166 13.6131C11.0512 13.668 11.0963 13.7156 11.1492 13.753C11.2022 13.7905 11.2621 13.8172 11.3254 13.8315V13.8315Z" fill="#112E49"/>
<path d="M17.3274 19.0569C16.7627 18.7464 16.2827 19.6034 16.8474 19.9208C18.6065 20.8989 20.1746 22.5768 20.1902 22.5936C20.2876 22.6983 20.6504 22.83 20.8884 22.6195C20.9365 22.5757 20.9753 22.5228 21.0027 22.4638C21.0301 22.4048 21.0454 22.341 21.0479 22.276C21.0503 22.211 21.0398 22.1462 21.0169 22.0853C20.9941 22.0244 20.9593 21.9687 20.9147 21.9214C20.8464 21.8479 19.2268 20.1132 17.3274 19.0569V19.0569Z" fill="#112E49"/>
<path d="M20.8878 26.2693C20.9355 26.2253 20.9741 26.1723 21.0013 26.1133C21.0285 26.0544 21.0437 25.9906 21.0462 25.9257C21.0486 25.8608 21.0382 25.7961 21.0155 25.7353C20.9928 25.6744 20.9584 25.6187 20.9141 25.5712C20.846 25.4978 19.2264 23.7629 17.3269 22.7067C17.2123 22.6431 17.0772 22.6275 16.9512 22.6635C16.8252 22.6995 16.7186 22.7841 16.655 22.8987C16.5913 23.0132 16.5758 23.1484 16.6118 23.2744C16.6478 23.4004 16.7323 23.5069 16.8469 23.5706C18.606 24.5487 20.1741 26.2265 20.1897 26.2433C20.2875 26.3481 20.6567 26.4798 20.8878 26.2693Z" fill="#112E49"/>
<path d="M46.0269 36.3305C38.0193 32.7743 30.3563 34.0103 24.4269 36.3506V11.1086C26.0285 10.4156 27.6925 9.87671 29.3963 9.49921C29.5017 9.47731 29.5978 9.4236 29.6717 9.34533C29.7422 9.26748 29.7861 9.16923 29.7971 9.06479C29.808 8.96035 29.7855 8.85513 29.7327 8.76435C29.6799 8.67356 29.5996 8.60191 29.5035 8.55977C29.4073 8.51762 29.3002 8.50716 29.1976 8.52989C27.4657 8.91029 25.7735 9.45312 24.1435 10.1512C20.7012 4.93723 15.6657 1.10754 6.35416 0.228009C6.28636 0.2228 6.21822 0.231698 6.15403 0.25414C6.08984 0.276583 6.031 0.312085 5.98122 0.358405C5.93144 0.404725 5.89179 0.460859 5.86479 0.523266C5.83779 0.585673 5.82401 0.652999 5.82433 0.720997V8.62688C4.98828 8.85827 2.91863 9.47634 1.244 10.3584C1.16538 10.4005 1.09974 10.4633 1.05417 10.5399C1.00859 10.6166 0.984798 10.7042 0.985361 10.7934V41.2653C0.9851 41.3424 1.00244 41.4185 1.03607 41.4879C1.0697 41.5573 1.11872 41.618 1.1794 41.6656C1.24008 41.7131 1.31081 41.7462 1.38621 41.7622C1.4616 41.7783 1.53966 41.7769 1.61444 41.7582C13.8374 38.3366 22.1171 41.3167 23.9344 41.7441C25.7483 41.3337 34.1721 38.3265 46.3856 41.7582C46.7903 41.8333 47.0147 41.6267 47.0147 41.2684V10.9731C47.0147 10.842 46.9626 10.7164 46.87 10.6237C46.7773 10.531 46.6516 10.479 46.5206 10.479C46.3895 10.479 46.2638 10.531 46.1712 10.6237C46.0785 10.7164 46.0264 10.842 46.0264 10.9731L46.0269 36.3305ZM1.9736 11.0952C3.21487 10.5089 4.50292 10.0272 5.82433 9.65521V26.9973C5.82428 27.1222 5.87152 27.2425 5.95653 27.3339C6.04155 27.4254 6.15804 27.4813 6.28258 27.4903C14.9367 28.3763 19.1215 31.4098 22.7258 36.0597C16.5899 33.905 9.96588 32.8945 1.97289 36.3306L1.9736 11.0952ZM23.4386 40.5908C17.2238 38.8569 10.9315 38.4054 1.9736 40.6338V39.577C11.5708 35.391 21.8936 38.9831 23.4386 39.5668V40.5908ZM23.4386 38.5114C17.6582 36.5338 9.67237 35.381 1.9736 38.5019V37.4211C9.69299 33.6857 17.9892 35.0613 23.4386 37.4277V38.5114ZM23.4386 35.349C22.7966 34.4524 18.2998 27.3743 6.81256 26.541V1.25704C15.2549 2.06048 20.6601 6.24368 23.4386 10.9145V35.349ZM46.0269 40.6337C39.0684 38.4665 28.9728 39.0347 24.4269 40.5932V39.5783C25.881 39.0298 36.3663 35.3636 46.0269 39.5769V40.6337ZM46.0269 38.5019C38.3415 35.3709 30.1877 36.5483 24.4269 38.5235V37.4297C26.1916 36.6458 36.1568 32.6485 46.0269 37.4211V38.5019Z" fill="#112E49"/>
<path d="M30.2981 11.3175C28.9066 11.1734 28.0041 12.9518 28.9536 13.9879L32.8593 18.5162C33.1398 18.8407 33.5376 19.0406 33.9654 19.0722C34.3931 19.1038 34.816 18.9645 35.1411 18.6848C35.4026 18.4586 35.5849 18.1547 35.6614 17.8176C35.738 17.4804 35.7047 17.1276 35.5665 16.8107L37.7158 14.9569L41.7149 19.5937C41.9888 19.9113 42.3776 20.107 42.7959 20.1379C43.2141 20.1688 43.6275 20.0322 43.945 19.7583C44.2626 19.4844 44.4584 19.0956 44.4892 18.6773C44.5201 18.2591 44.3836 17.8457 44.1096 17.5281L40.1107 12.8915L42.2595 11.0381C43.2348 11.6953 44.6864 10.9675 44.7331 9.78616C44.7493 9.5742 44.7234 9.36112 44.6567 9.15926C44.59 8.95739 44.484 8.77076 44.3447 8.61016L40.4393 4.08179C39.2331 2.68979 36.9979 4.12033 37.732 5.78748L31.039 11.5599C30.8156 11.4196 30.5612 11.3364 30.2981 11.3175V11.3175ZM41.5604 10.3362L34.9757 16.0153L31.7384 12.2613L38.3231 6.58273L41.5604 10.3362ZM34.496 17.9366C34.3694 18.0454 34.2048 18.0997 34.0382 18.0874C33.8717 18.0751 33.7169 17.9972 33.6077 17.8709L29.702 13.3427C29.5929 13.2162 29.5386 13.0515 29.5509 12.8849C29.5632 12.7184 29.6412 12.5635 29.7677 12.4544C29.8942 12.3453 30.0588 12.2909 30.2254 12.3033C30.392 12.3156 30.5469 12.3935 30.656 12.52L34.5615 17.0481C34.6703 17.1748 34.7245 17.3394 34.7122 17.5059C34.6999 17.6724 34.6222 17.8273 34.496 17.9366V17.9366ZM43.3618 18.1737C43.8661 18.7624 42.9718 19.5338 42.4635 18.9484L38.4643 14.3114L39.3625 13.5369L43.3618 18.1737ZM38.803 4.66174C38.9297 4.55338 39.0942 4.49947 39.2605 4.51174C39.4268 4.52401 39.5816 4.60146 39.6911 4.72725L43.596 9.25576C43.6515 9.31818 43.6939 9.391 43.7209 9.46996C43.7479 9.54893 43.759 9.63249 43.7534 9.71576C43.7479 9.79904 43.7258 9.88038 43.6885 9.95506C43.6513 10.0297 43.5995 10.0963 43.5363 10.1508C43.4731 10.2053 43.3997 10.2467 43.3204 10.2726C43.241 10.2984 43.1573 10.3083 43.0741 10.3016C42.9909 10.2948 42.9099 10.2716 42.8358 10.2333C42.7616 10.1949 42.6959 10.1422 42.6423 10.0783L38.7373 5.54988C38.629 5.42308 38.5751 5.25863 38.5874 5.0923C38.5997 4.92598 38.6772 4.77123 38.803 4.66174V4.66174Z" fill="#112E49"/>
<path d="M27.9473 26.6796V27.6206C27.9473 27.7516 27.9993 27.8773 28.092 27.97C28.1847 28.0626 28.3103 28.1147 28.4414 28.1147H40.5192C40.6502 28.1147 40.7759 28.0626 40.8686 27.97C40.9612 27.8773 41.0133 27.7516 41.0133 27.6206V26.6796C41.0128 26.435 40.9636 26.193 40.8684 25.9677C40.7733 25.7423 40.6341 25.5382 40.4591 25.3673C40.2841 25.1964 40.0768 25.0622 39.8493 24.9724C39.6218 24.8826 39.3786 24.839 39.1341 24.8443C39.2578 23.808 38.5243 22.8175 37.4424 22.8262H31.518C30.4373 22.8176 29.7017 23.808 29.8263 24.8443C29.5818 24.8391 29.3387 24.8826 29.1112 24.9724C28.8837 25.0622 28.6764 25.1965 28.5014 25.3674C28.3264 25.5383 28.1873 25.7424 28.0921 25.9677C27.997 26.193 27.9477 26.4351 27.9473 26.6796V26.6796ZM30.8146 24.5175C30.8148 24.331 30.889 24.1523 31.0209 24.0204C31.1528 23.8886 31.3316 23.8144 31.518 23.8142H37.4425C38.0251 23.8304 38.2005 24.3379 38.1459 24.8441H30.8146V24.5175ZM28.9355 26.6796C28.9358 26.4551 29.0251 26.2398 29.1839 26.081C29.3427 25.9222 29.558 25.8329 29.7826 25.8326H39.1777C39.9243 25.8646 40.0824 26.4919 40.0248 27.1267H28.9355V26.6796Z" fill="#112E49"/>
<defs>
<linearGradient id="paint0_linear_747_297676" x1="24.0001" y1="34.6094" x2="24.0001" y2="41.2823" gradientUnits="userSpaceOnUse">
<stop stop-color="#4396D2"/>
<stop offset="1" stop-color="#1E6CB4"/>
</linearGradient>
<linearGradient id="paint1_linear_747_297676" x1="34.6967" y1="9.04971" x2="38.5787" y2="13.55" gradientUnits="userSpaceOnUse">
<stop stop-color="#D86161"/>
<stop offset="1" stop-color="#C94646"/>
</linearGradient>
<linearGradient id="paint2_linear_747_297676" x1="34.481" y1="23.3184" x2="34.481" y2="25.6692" gradientUnits="userSpaceOnUse">
<stop stop-color="#D86161"/>
<stop offset="1" stop-color="#C94646"/>
</linearGradient>
</defs>
</svg>

<svg width="48" height="42" fill="none" xmlns="http://www.w3.org/2000/svg"><path d="M23.933 37.113c.866-10.154 1.359-19.714 0-26.32 0 0-10.665-5.367-21.647-.385a1.385 1.385 0 00-.806 1.263v25.442h22.453z" fill="#868F98"/><path d="M23.933 37.113c.678-11.034 1.328-22.584 2.357-27.255 3.774-1.276 11.549-3.02 19.424.55a1.385 1.385 0 01.807 1.264v25.441H23.933z" fill="#fff"/><path d="M26.29 9.857c-.804.264-1.591.576-2.357.935v26.32h2.357V9.858z" fill="#868F98"/><path d="M22.686 36.575c-3.219-1.26-12.191-3.972-21.207.538v4.169c10.288-2.92 18.342-1.224 21.265-.384a4.332 4.332 0 002.38.003c2.947-.838 11.094-2.544 21.397.381v-4.17c-9.026-4.514-18.096-1.79-21.34-.532a3.434 3.434 0 01-2.495-.005z" fill="url(#paint0_linear_747_297676)"/><path d="M22.363 34.953c-2.2-2.58-6.836-6.685-14.688-7.797a1.57 1.57 0 01-1.357-1.551V2.003a1.167 1.167 0 011.3-1.16c12.141 1.429 16.314 9.95 16.314 9.95V34.37a.892.892 0 01-1.57.582z" fill="#fff"/><path d="M11.435 20.5c1.145.352 2.23.877 3.218 1.557v-3.833a11.467 11.467 0 00-3.218-1.576V20.5z" fill="#868F98"/><path d="M37.185 13.6l1.646-1.42 4.89 5.67a1.087 1.087 0 01-1.645 1.419l-4.89-5.67z" fill="#E89040"/><path d="M30.18 12.945l9.033-7.79 3.882 4.5-9.032 7.79-3.882-4.5z" fill="url(#paint1_linear_747_297676)"/><path d="M42.28 10.398a1.124 1.124 0 101.702-1.468l-3.905-4.526a1.124 1.124 0 10-1.701 1.468l3.904 4.526zm-11.26 1.799a1.124 1.124 0 10-1.702 1.468l3.905 4.527a1.124 1.124 0 001.701-1.468l-3.904-4.527z" fill="#E89040"/><path d="M37.443 23.318H31.52a1.197 1.197 0 00-1.198 1.198v.82a26.17 26.17 0 008.32 0v-.82a1.198 1.198 0 00-1.198-1.198z" fill="url(#paint2_linear_747_297676)"/><path d="M29.783 25.338h9.395a1.341 1.341 0 011.34 1.341v.941H28.442v-.94a1.341 1.341 0 011.342-1.342z" fill="#E89040"/><path d="M14.947 17.826c-1.517-1.115-3.303-1.629-3.377-1.653a.473.473 0 00-.63.476v3.85a.494.494 0 00.353.474c1.091.34 2.126.839 3.07 1.483.424.22.784-.073.784-.4v-3.832a.495.495 0 00-.2-.398zm-.787 3.332a12.408 12.408 0 00-2.23-1.02V17.34c.784.292 1.533.675 2.23 1.14v2.68zM11.325 6.531c.154.035.542.129.584.129.563.007.68-.832.125-.972-.385-.116-.948-.285-1.081.252a.496.496 0 00.372.591zm3.391 1.223c3.18 1.411 5.449 3.862 5.471 3.886.402.373 1.19-.08.729-.667-.097-.106-2.424-2.625-5.8-4.122-.589-.258-.991.638-.4.903zm-3.391 2.428c4.974 1.126 8.83 5.08 8.87 5.117.584.485 1.093-.274.712-.685-.165-.171-4.095-4.202-9.364-5.396-.633-.132-.851.808-.218.964zm0 3.65c4.974 1.126 8.832 5.078 8.87 5.117a.563.563 0 00.7.013.483.483 0 00.012-.698c-.164-.171-4.095-4.203-9.363-5.396a.493.493 0 00-.527.745.494.494 0 00.308.219zm6.002 5.225c-.564-.31-1.044.546-.48.864 1.76.978 3.328 2.656 3.343 2.673.098.104.46.236.698.025a.489.489 0 00.027-.698c-.069-.073-1.688-1.808-3.588-2.864zm3.561 7.213a.493.493 0 00.026-.699c-.068-.073-1.688-1.808-3.587-2.864a.494.494 0 00-.48.864c1.759.978 3.327 2.655 3.343 2.672.098.105.467.237.698.026z" fill="#112E49"/><path d="M46.027 36.33c-8.008-3.556-15.67-2.32-21.6.02V11.11a27.487 27.487 0 014.97-1.61.495.495 0 10-.199-.97 28.21 28.21 0 00-5.055 1.622C20.701 4.937 15.666 1.108 6.354.228a.492.492 0 00-.53.493v7.906c-.836.231-2.905.85-4.58 1.731a.49.49 0 00-.259.435v30.472a.506.506 0 00.63.493c12.222-3.421 20.502-.441 22.32-.014 1.813-.41 10.237-3.417 22.45.014.405.075.63-.131.63-.49V10.973a.494.494 0 00-.989 0V36.33zM1.974 11.096a24.666 24.666 0 013.85-1.44v17.342a.494.494 0 00.459.493c8.654.886 12.839 3.92 16.443 8.57-6.136-2.155-12.76-3.166-20.753.27V11.096zm21.465 29.496c-6.215-1.734-12.508-2.186-21.465.043v-1.057c9.597-4.186 19.92-.594 21.465-.01v1.024zm0-2.08c-5.78-1.977-13.767-3.13-21.465-.01v-1.08c7.719-3.735 16.015-2.36 21.465.007v1.083zm0-3.162c-.642-.897-5.14-7.975-16.626-8.808V1.257c8.442.803 13.847 4.987 16.626 9.658v24.434zm22.588 5.285c-6.959-2.167-17.054-1.6-21.6-.04v-1.016c1.454-.548 11.94-4.214 21.6-.001v1.057zm0-2.132c-7.685-3.131-15.84-1.954-21.6.021V37.43c1.765-.784 11.73-4.782 21.6-.009v1.08z" fill="#112E49"/><path d="M30.298 11.318c-1.391-.145-2.294 1.634-1.344 2.67l3.905 4.528a1.62 1.62 0 002.802-.698 1.62 1.62 0 00-.095-1.007l2.15-1.854 3.999 4.637a1.581 1.581 0 102.395-2.066l-4-4.636 2.15-1.854c.975.657 2.426-.07 2.473-1.252a1.608 1.608 0 00-.388-1.176l-3.906-4.528c-1.206-1.392-3.441.038-2.707 1.705l-6.693 5.773a1.61 1.61 0 00-.74-.242zm11.262-.982l-6.584 5.68-3.238-3.755 6.585-5.678 3.237 3.753zm-7.064 7.6a.631.631 0 01-.888-.065l-3.906-4.528a.63.63 0 01.954-.823l3.906 4.528a.631.631 0 01-.066.889zm8.866.238c.504.588-.39 1.36-.898.774l-4-4.637.898-.774 4 4.637zM38.803 4.662a.632.632 0 01.888.065l3.905 4.529a.628.628 0 01-.276 1.017.633.633 0 01-.678-.195L38.737 5.55a.633.633 0 01.066-.888zM27.947 26.68v.94a.494.494 0 00.494.495H40.52a.495.495 0 00.494-.494v-.941a1.838 1.838 0 00-1.879-1.836c.124-1.036-.61-2.027-1.692-2.018h-5.924c-1.08-.008-1.816.982-1.692 2.018a1.841 1.841 0 00-1.879 1.836zm2.868-2.163a.704.704 0 01.703-.703h5.925c.582.016.758.524.703 1.03h-7.331v-.327zm-1.88 2.163a.848.848 0 01.848-.847h9.395c.746.032.904.659.847 1.294h-11.09v-.447z" fill="#112E49"/><defs><linearGradient id="paint0_linear_747_297676" x1="24" y1="34.609" x2="24" y2="41.282" gradientUnits="userSpaceOnUse"><stop stop-color="#4396D2"/><stop offset="1" stop-color="#1E6CB4"/></linearGradient><linearGradient id="paint1_linear_747_297676" x1="34.697" y1="9.05" x2="38.579" y2="13.55" gradientUnits="userSpaceOnUse"><stop stop-color="#D86161"/><stop offset="1" stop-color="#C94646"/></linearGradient><linearGradient id="paint2_linear_747_297676" x1="34.481" y1="23.318" x2="34.481" y2="25.669" gradientUnits="userSpaceOnUse"><stop stop-color="#D86161"/><stop offset="1" stop-color="#C94646"/></linearGradient></defs></svg>
